Numix-GalliumOS/64/mimetypes/application-vnd.ms-access.svg

<svg xmlns="http://www.w3.org/2000/svg" xmlns:xlink="http://www.w3.org/1999/xlink" width="64px" height="64px" viewBox="0 0 64 64" version="1.1">
<g id="surface1">
<path style=" stroke:none;fill-rule:nonzero;fill:rgb(63.921569%,21.176471%,22.352941%);fill-opacity:1;" d="M 10.671875 0 C 9.296875 0 8 1.355469 8 2.789062 L 8 61.210938 C 8 62.566406 9.375 64 10.671875 64 L 53.328125 64 C 54.625 64 56 62.566406 56 61.210938 L 56 18 L 38 0 Z M 10.671875 0 "/>
<path style=" stroke:none;fill-rule:nonzero;fill:rgb(0%,0%,0%);fill-opacity:0.196078;" d="M 8 48 L 8 61.335938 C 8 62.632812 9.375 64 10.664062 64 L 53.335938 64 C 54.625 64 56 62.632812 56 61.335938 L 56 48 Z M 8 48 "/>
<path style=" stroke:none;fill-rule:nonzero;fill:rgb(100%,100%,100%);fill-opacity:1;" d="M 20.554688 59.832031 L 20.171875 58 L 18.03125 58 L 17.664062 59.832031 L 16 59.832031 C 16.382812 58.269531 16.765625 56.847656 17.15625 55.566406 C 17.546875 54.273438 17.921875 53.050781 18.289062 51.898438 L 20.03125 51.898438 C 20.414062 53.0625 20.789062 54.292969 21.164062 55.601562 C 21.546875 56.902344 21.914062 58.3125 22.273438 59.832031 L 20.554688 59.832031 M 19.125 53.4375 C 19.039062 53.734375 18.953125 54.019531 18.875 54.292969 C 18.804688 54.558594 18.734375 54.828125 18.664062 55.085938 C 18.609375 55.347656 18.546875 55.609375 18.484375 55.871094 C 18.429688 56.136719 18.382812 56.410156 18.328125 56.695312 L 19.90625 56.695312 C 19.851562 56.410156 19.796875 56.136719 19.75 55.871094 C 19.695312 55.609375 19.632812 55.347656 19.5625 55.085938 C 19.5 54.828125 19.4375 54.558594 19.359375 54.292969 C 19.289062 54.019531 19.210938 53.734375 19.125 53.4375 "/>
<path style=" stroke:none;fill-rule:nonzero;fill:rgb(100%,100%,100%);fill-opacity:1;" d="M 26.234375 60 C 25.101562 60 24.234375 59.640625 23.632812 58.921875 C 23.039062 58.203125 22.734375 57.1875 22.734375 55.859375 C 22.734375 55.203125 22.828125 54.613281 23.007812 54.105469 C 23.195312 53.589844 23.445312 53.160156 23.765625 52.808594 C 24.09375 52.449219 24.484375 52.183594 24.921875 52 C 25.375 51.8125 25.867188 51.722656 26.390625 51.722656 C 26.679688 51.722656 26.9375 51.746094 27.164062 51.792969 C 27.398438 51.835938 27.601562 51.890625 27.773438 51.953125 C 27.945312 52.011719 28.085938 52.074219 28.203125 52.140625 C 28.320312 52.210938 28.414062 52.261719 28.476562 52.296875 L 28.054688 53.550781 C 27.859375 53.425781 27.617188 53.316406 27.328125 53.230469 C 27.054688 53.140625 26.734375 53.089844 26.367188 53.089844 C 26.117188 53.089844 25.867188 53.140625 25.625 53.230469 C 25.390625 53.316406 25.179688 53.46875 24.992188 53.679688 C 24.804688 53.886719 24.65625 54.164062 24.53125 54.511719 C 24.421875 54.863281 24.367188 55.300781 24.367188 55.820312 C 24.367188 56.726562 24.523438 57.421875 24.835938 57.90625 C 25.15625 58.386719 25.671875 58.628906 26.390625 58.628906 C 26.8125 58.628906 27.148438 58.582031 27.421875 58.488281 C 27.695312 58.394531 27.921875 58.300781 28.085938 58.203125 L 28.484375 59.449219 C 28.265625 59.585938 27.953125 59.714844 27.5625 59.832031 C 27.179688 59.945312 26.742188 60 26.234375 60 "/>
<path style=" stroke:none;fill-rule:nonzero;fill:rgb(100%,100%,100%);fill-opacity:1;" d="M 32.742188 60 C 31.601562 60 30.734375 59.640625 30.140625 58.921875 C 29.539062 58.203125 29.242188 57.1875 29.242188 55.859375 C 29.242188 55.203125 29.335938 54.613281 29.515625 54.105469 C 29.695312 53.589844 29.945312 53.160156 30.273438 52.808594 C 30.601562 52.449219 30.984375 52.183594 31.429688 52 C 31.875 51.8125 32.367188 51.722656 32.898438 51.722656 C 33.1875 51.722656 33.4375 51.746094 33.664062 51.792969 C 33.898438 51.835938 34.101562 51.890625 34.273438 51.953125 C 34.453125 52.011719 34.59375 52.074219 34.703125 52.140625 C 34.828125 52.210938 34.921875 52.261719 34.976562 52.296875 L 34.5625 53.550781 C 34.359375 53.425781 34.117188 53.316406 33.835938 53.230469 C 33.554688 53.140625 33.234375 53.089844 32.875 53.089844 C 32.617188 53.089844 32.375 53.140625 32.132812 53.230469 C 31.898438 53.316406 31.679688 53.46875 31.492188 53.679688 C 31.3125 53.886719 31.15625 54.164062 31.039062 54.511719 C 30.921875 54.863281 30.867188 55.300781 30.867188 55.820312 C 30.867188 56.726562 31.023438 57.421875 31.335938 57.90625 C 31.65625 58.386719 32.179688 58.628906 32.898438 58.628906 C 33.3125 58.628906 33.65625 58.582031 33.921875 58.488281 C 34.203125 58.394531 34.421875 58.300781 34.585938 58.203125 L 34.992188 59.449219 C 34.765625 59.585938 34.460938 59.714844 34.070312 59.832031 C 33.6875 59.945312 33.242188 60 32.742188 60 "/>
<path style=" stroke:none;fill-rule:nonzero;fill:rgb(100%,100%,100%);fill-opacity:1;" d="M 37.695312 58.550781 C 37.742188 58.5625 37.789062 58.5625 37.84375 58.5625 C 37.890625 58.5625 37.9375 58.5625 37.984375 58.5625 C 38.351562 58.5625 38.648438 58.496094 38.890625 58.355469 C 39.148438 58.222656 39.34375 58.035156 39.492188 57.792969 C 39.648438 57.554688 39.757812 57.269531 39.820312 56.949219 C 39.890625 56.617188 39.921875 56.25 39.921875 55.859375 C 39.921875 55.519531 39.898438 55.183594 39.84375 54.855469 C 39.789062 54.535156 39.703125 54.25 39.570312 54 C 39.4375 53.753906 39.265625 53.558594 39.039062 53.414062 C 38.8125 53.253906 38.523438 53.183594 38.164062 53.183594 C 38.09375 53.183594 38.015625 53.183594 37.929688 53.195312 C 37.84375 53.195312 37.765625 53.199219 37.695312 53.21875 L 37.695312 58.550781 M 41.546875 55.855469 C 41.546875 56.589844 41.453125 57.222656 41.257812 57.742188 C 41.078125 58.257812 40.820312 58.679688 40.492188 59 C 40.164062 59.328125 39.773438 59.5625 39.3125 59.714844 C 38.859375 59.859375 38.359375 59.933594 37.8125 59.933594 C 37.53125 59.933594 37.25 59.921875 36.96875 59.882812 C 36.703125 59.859375 36.40625 59.8125 36.09375 59.746094 L 36.09375 52 C 36.460938 51.921875 36.804688 51.871094 37.125 51.847656 C 37.445312 51.824219 37.742188 51.804688 38.023438 51.804688 C 38.554688 51.804688 39.03125 51.882812 39.46875 52.035156 C 39.90625 52.195312 40.28125 52.4375 40.585938 52.769531 C 40.890625 53.089844 41.125 53.515625 41.289062 54.027344 C 41.460938 54.527344 41.546875 55.140625 41.546875 55.859375 "/>
<path style=" stroke:none;fill-rule:nonzero;fill:rgb(100%,100%,100%);fill-opacity:1;" d="M 48 57.433594 C 48 57.914062 47.914062 58.3125 47.75 58.640625 C 47.585938 58.957031 47.359375 59.210938 47.078125 59.410156 C 46.796875 59.601562 46.46875 59.734375 46.078125 59.816406 C 45.695312 59.898438 45.28125 59.933594 44.835938 59.933594 C 44.484375 59.933594 44.117188 59.914062 43.734375 59.871094 C 43.351562 59.835938 42.976562 59.78125 42.601562 59.703125 L 42.601562 52 C 42.90625 51.953125 43.242188 51.910156 43.601562 51.871094 C 43.96875 51.832031 44.328125 51.804688 44.679688 51.804688 C 45.289062 51.804688 45.78125 51.871094 46.164062 52 C 46.546875 52.121094 46.84375 52.285156 47.0625 52.484375 C 47.28125 52.683594 47.429688 52.902344 47.507812 53.152344 C 47.585938 53.402344 47.625 53.648438 47.625 53.898438 C 47.625 54.273438 47.523438 54.609375 47.335938 54.898438 C 47.15625 55.191406 46.90625 55.421875 46.59375 55.589844 C 47.140625 55.785156 47.507812 56.050781 47.703125 56.386719 C 47.898438 56.71875 48 57.070312 48 57.433594 M 44.203125 56.359375 L 44.203125 58.515625 C 44.3125 58.53125 44.4375 58.542969 44.5625 58.550781 C 44.703125 58.5625 44.835938 58.5625 44.96875 58.5625 C 45.148438 58.5625 45.328125 58.550781 45.5 58.527344 C 45.671875 58.488281 45.828125 58.433594 45.960938 58.355469 C 46.09375 58.269531 46.210938 58.15625 46.296875 58.011719 C 46.382812 57.859375 46.429688 57.664062 46.429688 57.433594 C 46.429688 57.050781 46.296875 56.78125 46.046875 56.617188 C 45.804688 56.445312 45.476562 56.359375 45.0625 56.359375 L 44.203125 56.359375 M 44.828125 55.050781 C 45.234375 55.050781 45.539062 54.964844 45.75 54.796875 C 45.960938 54.613281 46.0625 54.371094 46.0625 54.0625 C 46.0625 53.875 46.03125 53.730469 45.96875 53.613281 C 45.90625 53.5 45.828125 53.40625 45.726562 53.347656 C 45.617188 53.28125 45.5 53.238281 45.359375 53.21875 C 45.21875 53.195312 45.078125 53.183594 44.929688 53.183594 C 44.804688 53.183594 44.679688 53.183594 44.554688 53.195312 C 44.421875 53.199219 44.304688 53.214844 44.203125 53.230469 L 44.203125 55.050781 L 44.828125 55.050781 "/>
<path style=" stroke:none;fill-rule:nonzero;fill:rgb(0%,0%,0%);fill-opacity:0.196078;" d="M 42 18 L 56 32 L 56 18 Z M 42 18 "/>
<path style=" stroke:none;fill-rule:nonzero;fill:rgb(100%,100%,100%);fill-opacity:0.392157;" d="M 38 0 L 55.984375 18 L 40.757812 18 C 39.410156 18 38 16.574219 38 15.226562 Z M 38 0 "/>
<path style=" stroke:none;fill-rule:nonzero;fill:rgb(100%,100%,100%);fill-opacity:1;" d="M 32 21.992188 C 26.476562 21.992188 22 23.390625 22 25.121094 L 22 27.617188 C 22 29.347656 26.476562 30.746094 32 30.746094 C 37.523438 30.746094 42 29.347656 42 27.617188 L 42 25.121094 C 42 23.390625 37.523438 21.992188 32 21.992188 Z M 32 21.992188 "/>
<path style=" stroke:none;fill-rule:nonzero;fill:rgb(100%,100%,100%);fill-opacity:1;" d="M 31.96875 31.992188 C 27.488281 31.992188 23.714844 31.078125 22.441406 29.808594 C 22.140625 30.101562 22 30.417969 22 30.746094 L 22 33.246094 C 22 34.972656 26.476562 36.375 32 36.375 C 37.523438 36.375 42 34.972656 42 33.246094 L 42 30.746094 C 42 30.417969 41.824219 30.101562 41.53125 29.808594 C 40.257812 31.078125 36.445312 31.992188 31.96875 31.992188 Z M 31.96875 31.992188 "/>
<path style=" stroke:none;fill-rule:nonzero;fill:rgb(100%,100%,100%);fill-opacity:1;" d="M 31.96875 37.617188 C 27.488281 37.617188 23.714844 36.703125 22.441406 35.4375 C 22.140625 35.730469 22 36.042969 22 36.375 L 22 38.871094 C 22 40.601562 26.476562 42 32 42 C 37.523438 42 42 40.601562 42 38.871094 L 42 36.375 C 42 36.042969 41.824219 35.730469 41.53125 35.4375 C 40.257812 36.703125 36.445312 37.617188 31.96875 37.617188 Z M 31.96875 37.617188 "/>
</g>
</svg>

<svg xmlns="http://www.w3.org/2000/svg" viewBox="0 0 64 64">
 <g>
  <path d="m 10.672 0 c -1.375 0 -2.672 1.355 -2.672 2.789 l 0 58.42 c 0 1.355 1.375 2.789 2.672 2.789 l 42.656 0 c 1.297 0 2.672 -1.434 2.672 -2.789 l 0 -43.21 l -18 -18 m -27.328 0" style="fill:#a33638;fill-opacity:1;stroke:none;fill-rule:nonzero"/>
  <path d="m 8 48 l 0 13.336 c 0 1.297 1.375 2.664 2.664 2.664 l 42.672 0 c 1.289 0 2.664 -1.367 2.664 -2.664 l 0 -13.336 m -48 0" style="fill:#000;fill-opacity:0.196;stroke:none;fill-rule:nonzero"/>
  <path d="m 20.555 59.832 l -0.383 -1.832 l -2.141 0 l -0.367 1.832 l -1.664 0 c 0.383 -1.563 0.766 -2.984 1.156 -4.266 c 0.391 -1.293 0.766 -2.516 1.133 -3.668 l 1.742 0 c 0.383 1.164 0.758 2.395 1.133 3.703 c 0.383 1.301 0.75 2.711 1.109 4.23 l -1.719 0 m -1.43 -6.395 c -0.086 0.297 -0.172 0.582 -0.25 0.855 c -0.07 0.266 -0.141 0.535 -0.211 0.793 c -0.055 0.262 -0.117 0.523 -0.18 0.785 c -0.055 0.266 -0.102 0.539 -0.156 0.824 l 1.578 0 c -0.055 -0.285 -0.109 -0.559 -0.156 -0.824 c -0.055 -0.262 -0.117 -0.523 -0.188 -0.785 c -0.063 -0.258 -0.125 -0.527 -0.203 -0.793 c -0.07 -0.273 -0.148 -0.559 -0.234 -0.855" style="fill:#fff;fill-opacity:1;stroke:none;fill-rule:nonzero"/>
  <path d="m 26.23 60 c -1.133 0 -2 -0.359 -2.602 -1.078 c -0.594 -0.719 -0.898 -1.734 -0.898 -3.063 c 0 -0.656 0.094 -1.246 0.273 -1.754 c 0.188 -0.516 0.438 -0.945 0.758 -1.297 c 0.328 -0.359 0.719 -0.625 1.156 -0.809 c 0.453 -0.188 0.945 -0.277 1.469 -0.277 c 0.289 0 0.547 0.023 0.773 0.07 c 0.234 0.043 0.438 0.098 0.609 0.16 c 0.172 0.059 0.313 0.121 0.43 0.188 c 0.117 0.07 0.211 0.121 0.273 0.156 l -0.422 1.254 c -0.195 -0.125 -0.438 -0.234 -0.727 -0.32 c -0.273 -0.09 -0.594 -0.141 -0.961 -0.141 c -0.25 0 -0.5 0.051 -0.742 0.141 c -0.234 0.086 -0.445 0.238 -0.633 0.449 c -0.188 0.207 -0.336 0.484 -0.461 0.832 c -0.109 0.352 -0.164 0.789 -0.164 1.309 c 0 0.906 0.156 1.602 0.469 2.086 c 0.32 0.48 0.836 0.723 1.555 0.723 c 0.422 0 0.758 -0.047 1.031 -0.141 c 0.273 -0.094 0.5 -0.188 0.664 -0.285 l 0.398 1.246 c -0.219 0.137 -0.531 0.266 -0.922 0.383 c -0.383 0.113 -0.82 0.168 -1.328 0.168" style="fill:#fff;fill-opacity:1;stroke:none;fill-rule:nonzero"/>
  <path d="m 32.742 60 c -1.141 0 -2.01 -0.359 -2.602 -1.078 c -0.602 -0.719 -0.898 -1.734 -0.898 -3.063 c 0 -0.656 0.094 -1.246 0.273 -1.754 c 0.18 -0.516 0.43 -0.945 0.758 -1.297 c 0.328 -0.359 0.711 -0.625 1.156 -0.809 c 0.445 -0.188 0.938 -0.277 1.469 -0.277 c 0.289 0 0.539 0.023 0.766 0.07 c 0.234 0.043 0.438 0.098 0.609 0.16 c 0.18 0.059 0.32 0.121 0.43 0.188 c 0.125 0.07 0.219 0.121 0.273 0.156 l -0.414 1.254 c -0.203 -0.125 -0.445 -0.234 -0.727 -0.32 c -0.281 -0.09 -0.602 -0.141 -0.961 -0.141 c -0.258 0 -0.5 0.051 -0.742 0.141 c -0.234 0.086 -0.453 0.238 -0.641 0.449 c -0.18 0.207 -0.336 0.484 -0.453 0.832 c -0.117 0.352 -0.172 0.789 -0.172 1.309 c 0 0.906 0.156 1.602 0.469 2.086 c 0.32 0.48 0.844 0.723 1.563 0.723 c 0.414 0 0.758 -0.047 1.023 -0.141 c 0.281 -0.094 0.5 -0.188 0.664 -0.285 l 0.406 1.246 c -0.227 0.137 -0.531 0.266 -0.922 0.383 c -0.383 0.113 -0.828 0.168 -1.328 0.168" style="fill:#fff;fill-opacity:1;stroke:none;fill-rule:nonzero"/>
  <path d="m 37.695 58.55 c 0.047 0.012 0.094 0.012 0.148 0.012 c 0.047 0 0.094 0 0.141 0 c 0.367 0 0.664 -0.066 0.906 -0.207 c 0.258 -0.133 0.453 -0.32 0.602 -0.563 c 0.156 -0.238 0.266 -0.523 0.328 -0.844 c 0.07 -0.332 0.102 -0.699 0.102 -1.09 c 0 -0.34 -0.023 -0.676 -0.078 -1 c -0.055 -0.32 -0.141 -0.605 -0.273 -0.855 c -0.133 -0.246 -0.305 -0.441 -0.531 -0.586 c -0.227 -0.16 -0.516 -0.23 -0.875 -0.23 c -0.07 0 -0.148 0 -0.234 0.012 c -0.086 0 -0.164 0.004 -0.234 0.023 l 0 5.332 m 3.852 -2.695 c 0 0.734 -0.094 1.367 -0.289 1.887 c -0.18 0.516 -0.438 0.938 -0.766 1.258 c -0.328 0.328 -0.719 0.563 -1.18 0.715 c -0.453 0.145 -0.953 0.219 -1.5 0.219 c -0.281 0 -0.563 -0.012 -0.844 -0.051 c -0.266 -0.023 -0.563 -0.07 -0.875 -0.137 l 0 -7.746 c 0.367 -0.078 0.711 -0.129 1.031 -0.152 c 0.32 -0.023 0.617 -0.043 0.898 -0.043 c 0.531 0 1.01 0.078 1.445 0.23 c 0.438 0.16 0.813 0.402 1.117 0.734 c 0.305 0.32 0.539 0.746 0.703 1.258 c 0.172 0.5 0.258 1.113 0.258 1.832" style="fill:#fff;fill-opacity:1;stroke:none;fill-rule:nonzero"/>
  <path d="m 48 57.43 c 0 0.48 -0.086 0.879 -0.25 1.207 c -0.164 0.316 -0.391 0.57 -0.672 0.77 c -0.281 0.191 -0.609 0.324 -1 0.406 c -0.383 0.082 -0.797 0.117 -1.242 0.117 c -0.352 0 -0.719 -0.02 -1.102 -0.063 c -0.383 -0.035 -0.758 -0.09 -1.133 -0.168 l 0 -7.703 c 0.305 -0.047 0.641 -0.09 1 -0.129 c 0.367 -0.039 0.727 -0.066 1.078 -0.066 c 0.609 0 1.102 0.066 1.484 0.195 c 0.383 0.121 0.68 0.285 0.898 0.484 c 0.219 0.199 0.367 0.418 0.445 0.668 c 0.078 0.25 0.117 0.496 0.117 0.746 c 0 0.375 -0.102 0.711 -0.289 1 c -0.18 0.293 -0.43 0.523 -0.742 0.691 c 0.547 0.195 0.914 0.461 1.109 0.797 c 0.195 0.332 0.297 0.684 0.297 1.047 m -3.797 -1.074 l 0 2.156 c 0.109 0.016 0.234 0.027 0.359 0.035 c 0.141 0.012 0.273 0.012 0.406 0.012 c 0.18 0 0.359 -0.012 0.531 -0.035 c 0.172 -0.039 0.328 -0.094 0.461 -0.172 c 0.133 -0.086 0.25 -0.199 0.336 -0.344 c 0.086 -0.152 0.133 -0.348 0.133 -0.578 c 0 -0.383 -0.133 -0.652 -0.383 -0.816 c -0.242 -0.172 -0.57 -0.258 -0.984 -0.258 l -0.859 0 m 0.625 -1.309 c 0.406 0 0.711 -0.086 0.922 -0.254 c 0.211 -0.184 0.313 -0.426 0.313 -0.734 c 0 -0.188 -0.031 -0.332 -0.094 -0.449 c -0.063 -0.113 -0.141 -0.207 -0.242 -0.266 c -0.109 -0.066 -0.227 -0.109 -0.367 -0.129 c -0.141 -0.023 -0.281 -0.035 -0.43 -0.035 c -0.125 0 -0.25 0 -0.375 0.012 c -0.133 0.004 -0.25 0.02 -0.352 0.035 l 0 1.82 l 0.625 0" style="fill:#fff;fill-opacity:1;stroke:none;fill-rule:nonzero"/>
  <path d="m 42 18 l 14 14 l 0 -14 m -14 0" style="fill:#000;fill-opacity:0.196;stroke:none;fill-rule:nonzero"/>
  <path d="m 38 0 l 17.984 18 l -15.227 0 c -1.348 0 -2.758 -1.426 -2.758 -2.773 m 0 -15.227" style="fill:#fff;fill-opacity:0.392;stroke:none;fill-rule:nonzero"/>
  <path d="m 32 21.992 c -5.523 0 -10 1.398 -10 3.129 l 0 2.496 c 0 1.73 4.477 3.129 10 3.129 c 5.523 0 10 -1.398 10 -3.129 l 0 -2.496 c 0 -1.73 -4.477 -3.129 -10 -3.129 m 0 0" style="fill:#fff;fill-opacity:1;stroke:none;fill-rule:nonzero"/>
  <path d="m 31.969 31.992 c -4.48 0 -8.254 -0.914 -9.527 -2.184 c -0.301 0.293 -0.441 0.609 -0.441 0.938 l 0 2.5 c 0 1.727 4.477 3.129 10 3.129 c 5.523 0 10 -1.402 10 -3.129 l 0 -2.5 c 0 -0.328 -0.176 -0.645 -0.469 -0.938 c -1.273 1.27 -5.086 2.184 -9.563 2.184 m 0 0" style="fill:#fff;fill-opacity:1;stroke:none;fill-rule:nonzero"/>
  <path d="m 31.969 37.617 c -4.48 0 -8.254 -0.914 -9.527 -2.18 c -0.301 0.293 -0.441 0.605 -0.441 0.938 l 0 2.496 c 0 1.73 4.477 3.129 10 3.129 c 5.523 0 10 -1.398 10 -3.129 l 0 -2.496 c 0 -0.332 -0.176 -0.645 -0.469 -0.938 c -1.273 1.266 -5.086 2.18 -9.563 2.18 m 0 0" style="fill:#fff;fill-opacity:1;stroke:none;fill-rule:nonzero"/>
 </g>
</svg>
